FlatUX/src/svg/FFmpeg-content.svg

<svg enable-background="new 0 0 256 256" viewBox="0 0 256 256" xmlns="http://www.w3.org/2000/svg"><path d="m159.714 12h-102.857c-7.103 0-12.857 5.768-12.857 12.889v206.222c0 7.121 5.754 12.889 12.857 12.889h154.286c7.104 0 12.857-5.768 12.857-12.889v-154.667z" fill="#dadfe0"/><path d="m152.784 28 55.216 55.003v144.997h-148v-200z" fill="#1eae5b"/><g fill="#edefef"><path d="m190.426 84h-25.626c-7.072 0-12.8-5.728-12.8-12.8v-25.6-25.6l64 64z"/><path d="m187.143 219.999h-35.428c-3.583 0-6.812-2.159-8.182-5.466-1.372-3.311-.614-7.12 1.92-9.653l32.833-32.833v-10.379l-55.737 55.737c-1.661 1.661-3.913 2.595-6.262 2.595h-35.43c-3.583 0-6.812-2.159-8.182-5.466-1.372-3.311-.614-7.12 1.92-9.653l91.164-91.166h-10.376l-68.263 68.261c-2.533 2.533-6.347 3.287-9.651 1.92-3.311-1.37-5.468-4.602-5.468-8.182v-35.428c0-2.349.932-4.602 2.595-6.262l20.307-20.309h-14.046c-4.892 0-8.857-3.965-8.857-8.857 0-4.893 3.965-8.858 8.857-8.858h35.428c3.583 0 6.812 2.157 8.182 5.468 1.372 3.309.614 7.119-1.92 9.651l-32.833 32.835v10.378l55.737-55.737c1.661-1.662 3.913-2.595 6.262-2.595h35.428c3.583 0 6.812 2.157 8.182 5.468 1.372 3.309.614 7.119-1.92 9.651l-91.164 91.166h10.376l68.264-68.262c2.534-2.536 6.345-3.294 9.651-1.92 3.311 1.37 5.468 4.6 5.468 8.182v35.428c0 2.349-.932 4.602-2.595 6.262l-20.307 20.309h14.045c4.892 0 8.857 3.965 8.857 8.857s-3.963 8.858-8.855 8.858z"/></g></svg>

<svg xmlns="http://www.w3.org/2000/svg" viewBox="0 0 256 256"><path fill="#dadfe0" d="M159.714 12H56.857C49.754 12 44 17.768 44 24.889v206.222C44 238.232 49.754 244 56.857 244h154.286c7.104 0 12.857-5.768 12.857-12.889V76.444z"/><path fill="#1eae5b" d="M152.784 28 208 83.003V228H60V28z"/><path fill="#edefef" d="M190.426 84H164.8c-7.072 0-12.8-5.728-12.8-12.8V20l64 64zm-3.283 135.999h-35.428a8.857 8.857 0 0 1-6.262-15.119l32.833-32.833v-10.379l-55.737 55.737a8.86 8.86 0 0 1-6.262 2.595h-35.43a8.857 8.857 0 0 1-6.262-15.119l91.164-91.166h-10.376L87.12 181.976a8.856 8.856 0 0 1-15.119-6.262v-35.428c0-2.349.932-4.602 2.595-6.262l20.307-20.309H80.857A8.856 8.856 0 0 1 72 104.858 8.857 8.857 0 0 1 80.857 96h35.428a8.85 8.85 0 0 1 8.182 5.468 8.85 8.85 0 0 1-1.92 9.651l-32.833 32.835v10.378l55.737-55.737A8.85 8.85 0 0 1 151.713 96h35.428a8.85 8.85 0 0 1 8.182 5.468 8.85 8.85 0 0 1-1.92 9.651l-91.164 91.166h10.376l68.264-68.262a8.85 8.85 0 0 1 9.651-1.92 8.85 8.85 0 0 1 5.468 8.182v35.428a8.85 8.85 0 0 1-2.595 6.262l-20.307 20.309h14.045c4.892 0 8.857 3.965 8.857 8.857s-3.963 8.858-8.855 8.858"/></svg>
